!!!OTL: Der Hammerschmiedssohn 'Annele, du sollst ni borwes giehn,
!!!ARE: Europa, Osteuropa, Tschechoslowakei, Sudetenland, Kuhlaendchen
!!!ARD: Europa%Osteuropa%Ceska Republika@Kuhlaendchen#
!!!ARL: 49.66/18.00#
!!!YOR: 4, S. 360
!!    1938 gedruckt in Reichenberg
!!!SCT: Q0088H
!!!YEM: Copyright 1995, estate of Helmut Schaffrath.
**kern
*ICvox
*Ivox
*M2/4
*k[b-]
*F:
=1
{8cc
16b-
16b-
8a
8b-
=2
8cc
8a
4f}
=3
{8g
16f
16f
8e
8f
=4
8g
8e
8c}
{8c
=5
8b-
8a
8g
8f
=6
4g
4e
=7
4f
8r}
{8f
=8
8b-
8a
8g
8f
=9
4g
4e
=10
4f
4r}
==
!!!AGN: Ballade, Verfuehrung, Schwangerschaft, Mord
!!!ONB: ESAC (Essen Associative Code) Database: BALLADE
!!!AMT: simple duple
!!!AIN: vox
!!!EED: Helmut Schaffrath
!!!EEV: 1.0
*-
!!!title: @{OTL} [@{SCT}]
